public/img/top/com-2.svg

<svg fill="none" height="205" viewBox="0 0 179 205" width="179" xmlns="http://www.w3.org/2000/svg" xmlns:xlink="http://www.w3.org/1999/xlink"><filter id="a" color-interpolation-filters="sRGB" filterUnits="userSpaceOnUse" height="203.374" width="178.622" x=".310802" y=".945312"><feFlood flood-opacity="0" result="BackgroundImageFix"/><feColorMatrix in="SourceAlpha" result="hardAlpha" type="matrix" values="0 0 0 0 0 0 0 0 0 0 0 0 0 0 0 0 0 0 127 0"/><feOffset dx="-8.5946" dy="10.027"/><feGaussianBlur stdDeviation="4.2973"/><feColorMatrix type="matrix" values="0 0 0 0 0.316369 0 0 0 0 0.366988 0 0 0 0 0.353496 0 0 0 0.25741 0"/><feBlend in2="BackgroundImageFix" mode="normal" result="effect1_dropShadow_557_401"/><feColorMatrix in="SourceAlpha" result="hardAlpha" type="matrix" values="0 0 0 0 0 0 0 0 0 0 0 0 0 0 0 0 0 0 127 0"/><feOffset dx="-2.14865" dy="5.01352"/><feGaussianBlur stdDeviation="1.79054"/><feColorMatrix type="matrix" values="0 0 0 0 0 0 0 0 0 0 0 0 0 0 0 0 0 0 0.144615 0"/><feBlend in2="effect1_dropShadow_557_401" mode="normal" result="effect2_dropShadow_557_401"/><feBlend in="SourceGraphic" in2="effect2_dropShadow_557_401" mode="normal" result="shape"/></filter><g filter="url(#a)"><path d="m97.5.945312 80 46.187988v92.3757l-80 46.188-80-46.188v-92.3757z" fill="#000"/></g><path d="m97.5.945312 80 46.187988v92.3757l-80 46.188-80-46.188v-92.3757z" fill="#f0f5f6"/><path d="m118.607 79.2182v-3.7563c0-.3758-.211-.6811-.634-.9159-.422-.2349-.633-.3523-.633-.3523l-5.611-2.6773c.443-.3489.818-.7683 1.126-1.2581.309-.4899.557-.9998.744-1.5299.188-.5301.322-1.0501.403-1.5601.08-.51.12-.9595.12-1.3487v-3.2209c0-.5368-.171-1.0736-.513-1.6104-.341-.5368-.784-1.0199-1.327-1.4493-.543-.4295-1.16-.7784-1.85-1.0468s-1.391-.4026-2.101-.4026c-.711 0-1.415.1342-2.112.4026s-1.317.6173-1.86 1.0468c-.543.4294-.982.9125-1.317 1.4493-.336.5368-.503 1.0736-.503 1.6104v3.2209c0 .3489.04.775.12 1.2782.081.5033.218 1.02.413 1.5501.194.5301.446 1.0501.754 1.56.308.51.69.9462 1.146 1.3085l-5.6508 2.6773s-.2145.1241-.6435.3724-.6435.5469-.6435.8958v3.7563" fill="#003"/><path d="m118.607 79.2182v-3.7563c0-.3758-.211-.6811-.634-.9159-.422-.2349-.633-.3523-.633-.3523l-5.611-2.6773c.443-.3489.818-.7683 1.126-1.2581.309-.4899.557-.9998.744-1.5299.188-.5301.322-1.0501.403-1.5601.08-.51.12-.9595.12-1.3487v-3.2209c0-.5368-.171-1.0736-.513-1.6104-.341-.5368-.784-1.0199-1.327-1.4493-.543-.4295-1.16-.7784-1.85-1.0468s-1.391-.4026-2.101-.4026c-.711 0-1.415.1342-2.112.4026s-1.317.6173-1.86 1.0468c-.543.4294-.982.9125-1.317 1.4493-.336.5368-.503 1.0736-.503 1.6104v3.2209c0 .3489.04.775.12 1.2782.081.5033.218 1.02.413 1.5501.194.5301.446 1.0501.754 1.56.308.51.69.9462 1.146 1.3085l-5.6508 2.6773s-.2145.1241-.6435.3724-.6435.5469-.6435.8958v3.7563" stroke="#003" stroke-width="1.2566"/><path d="m71.1214 93.3918h-20.5726v36.1412h20.5726z" fill="#fff"/><path d="m94.7523 106.18h-20.5726v23.353h20.5726z" fill="#fff"/><path d="m118.383 82.2715h-20.5725v47.2615h20.5725z" fill="#fff"/><path d="m71.1214 103.956h-20.5726v25.577h20.5726z" fill="#00e599"/><path d="m94.7523 117.299h-20.5726v12.232h20.5726z" fill="#00e599"/><path d="m118.383 93.9475h-20.5725v35.5855h20.5725z" fill="#00e599"/><g stroke="#003"><path d="m71.1214 93.3918h-20.5726v36.1412h20.5726z" stroke-width="1.81261"/><path d="m94.7523 106.18h-20.5726v23.353h20.5726z" stroke-width="1.81261"/><path d="m118.383 82.2715h-20.5725v47.2615h20.5725z" stroke-width="1.81261"/></g><path d="m94.8327 102.8v-3.855c0-.3857-.2169-.699-.6506-.9401-.4337-.241-.6506-.3615-.6506-.3615l-5.7623-2.7478c.4544-.3581.8399-.7885 1.1566-1.2912s.5714-1.0261.7642-1.5702c.1927-.544.3304-1.0777.413-1.6011s.124-.9848.124-1.3842v-3.3056c0-.5509-.1756-1.1019-.5267-1.6528s-.8055-1.0468-1.3631-1.4875c-.5577-.4408-1.1911-.7989-1.9002-1.0743-.7091-.2755-1.4285-.4132-2.1583-.4132-.7297 0-1.4526.1377-2.1686.4132-.716.2754-1.3528.6335-1.9105 1.0743-.5576.4407-1.0085.9366-1.3528 1.4875-.3442.5509-.5163 1.1019-.5163 1.6528v3.3056c0 .3581.0413.7954.1239 1.3119s.2238 1.0467.4234 1.5908c.1997.544.4578 1.0777.7745 1.6011s.7091.971 1.1773 1.3429l-5.8037 2.7478s-.2203.1274-.6609.3822-.6609.5613-.6609.9194v3.855" fill="#fff"/><path d="m94.8327 102.8v-3.855c0-.3857-.2169-.699-.6506-.9401-.4337-.241-.6506-.3615-.6506-.3615l-5.7623-2.7478c.4544-.3581.8399-.7885 1.1566-1.2912s.5714-1.0261.7642-1.5702c.1927-.544.3304-1.0777.413-1.6011s.124-.9848.124-1.3842v-3.3056c0-.5509-.1756-1.1019-.5267-1.6528s-.8055-1.0468-1.3631-1.4875c-.5577-.4408-1.1911-.7989-1.9002-1.0743-.7091-.2755-1.4285-.4132-2.1583-.4132-.7297 0-1.4526.1377-2.1686.4132-.716.2754-1.3528.6335-1.9105 1.0743-.5576.4407-1.0085.9366-1.3528 1.4875-.3442.5509-.5163 1.1019-.5163 1.6528v3.3056c0 .3581.0413.7954.1239 1.3119s.2238 1.0467.4234 1.5908c.1997.544.4578 1.0777.7745 1.6011s.7091.971 1.1773 1.3429l-5.8037 2.7478s-.2203.1274-.6609.3822-.6609.5613-.6609.9194v3.855" stroke="#003" stroke-width="1.2566"/><path d="m142.013 93.3916h-20.573v36.1414h20.573z" fill="#fff"/><path d="m142.013 103.956h-20.573v25.577h20.573z" fill="#00e599"/><path d="m142.013 93.3916h-20.573v36.1414h20.573z" stroke="#003" stroke-width="1.81261"/><path d="m142.291 90.0547v-3.8551c0-.3857-.217-.699-.651-.94-.434-.2411-.65-.3616-.65-.3616l-5.763-2.7477c.455-.3581.84-.7886 1.157-1.2913.316-.5027.571-1.0261.764-1.5701.193-.5441.33-1.0778.413-1.6012s.124-.9848.124-1.3842v-3.3056c0-.5509-.176-1.1018-.527-1.6528-.351-.5509-.805-1.0467-1.363-1.4875-.557-.4407-1.191-.7988-1.9-1.0743s-1.429-.4132-2.158-.4132c-.73 0-1.453.1377-2.169.4132s-1.353.6336-1.91 1.0743c-.558.4408-1.009.9366-1.353 1.4875-.344.551-.516 1.1019-.516 1.6528v3.3056c0 .3581.041.7954.123 1.3119.083.5165.224 1.0468.424 1.5908.199.5441.458 1.0778.774 1.6012.317.5234.709.971 1.178 1.3429l-5.804 2.7477s-.22.1274-.661.3822-.661.5613-.661.9194v3.8551" fill="#fff"/><path d="m142.291 90.0547v-3.8551c0-.3857-.217-.699-.651-.94-.434-.2411-.65-.3616-.65-.3616l-5.763-2.7477c.455-.3581.84-.7886 1.157-1.2913.316-.5027.571-1.0261.764-1.5701.193-.5441.33-1.0778.413-1.6012s.124-.9848.124-1.3842v-3.3056c0-.5509-.176-1.1018-.527-1.6528-.351-.5509-.805-1.0467-1.363-1.4875-.557-.4407-1.191-.7988-1.9-1.0743s-1.429-.4132-2.158-.4132c-.73 0-1.453.1377-2.169.4132s-1.353.6336-1.91 1.0743c-.558.4408-1.009.9366-1.353 1.4875-.344.551-.516 1.1019-.516 1.6528v3.3056c0 .3581.041.7954.123 1.3119.083.5165.224 1.0468.424 1.5908.199.5441.458 1.0778.774 1.6012.317.5234.709.971 1.178 1.3429l-5.804 2.7477s-.22.1274-.661.3822-.661.5613-.661.9194v3.8551" stroke="#003" stroke-width="1.2566"/><path d="m70.9075 90.0993v-3.7563c0-.3757-.2111-.6811-.6334-.9159-.4223-.2349-.6335-.3523-.6335-.3523l-5.6107-2.6773c.4424-.3489.8178-.7683 1.1262-1.2581.3083-.4899.5563-.9998.744-1.5299s.3218-1.0501.4022-1.5601c.0805-.51.1207-.9595.1207-1.3487v-3.2208c0-.5368-.1709-1.0737-.5128-1.6105s-.7843-1.0199-1.3273-1.4493c-.5429-.4295-1.1596-.7784-1.8501-1.0468-.6904-.2684-1.3909-.4026-2.1015-.4026-.7105 0-1.4144.1342-2.1115.4026-.6972.2684-1.3173.6173-1.8602 1.0468-.543.4294-.9821.9125-1.3172 1.4493-.3352.5368-.5028 1.0737-.5028 1.6105v3.2208c0 .3489.0402.775.1207 1.2782.0804.5033.2178 1.02.4122 1.5501s.4458 1.0501.7542 1.56c.3083.51.6904.9462 1.1462 1.3085l-5.6509 2.6773s-.2145.1242-.6435.3724c-.429.2483-.6435.5469-.6435.8958v3.7563" fill="#003"/><path d="m70.9075 90.0993v-3.7563c0-.3757-.2111-.6811-.6334-.9159-.4223-.2349-.6335-.3523-.6335-.3523l-5.6107-2.6773c.4424-.3489.8178-.7683 1.1262-1.2581.3083-.4899.5563-.9998.744-1.5299s.3218-1.0501.4022-1.5601c.0805-.51.1207-.9595.1207-1.3487v-3.2208c0-.5368-.1709-1.0737-.5128-1.6105s-.7843-1.0199-1.3273-1.4493c-.5429-.4295-1.1596-.7784-1.8501-1.0468-.6904-.2684-1.3909-.4026-2.1015-.4026-.7105 0-1.4144.1342-2.1115.4026-.6972.2684-1.3173.6173-1.8602 1.0468-.543.4294-.9821.9125-1.3172 1.4493-.3352.5368-.5028 1.0737-.5028 1.6105v3.2208c0 .3489.0402.775.1207 1.2782.0804.5033.2178 1.02.4122 1.5501s.4458 1.0501.7542 1.56c.3083.51.6904.9462 1.1462 1.3085l-5.6509 2.6773s-.2145.1242-.6435.3724c-.429.2483-.6435.5469-.6435.8958v3.7563" stroke="#003" stroke-width="1.2566"/></svg>

<svg width="179" height="205" viewBox="0 0 179 205" fill="none" xmlns="http://www.w3.org/2000/svg">
<g filter="url(#filter0_dd_557_401)">
<path d="M97.5 0.945312L177.5 47.1333V139.509L97.5 185.697L17.5 139.509V47.1333L97.5 0.945312Z" fill="black"/>
</g>
<path d="M97.5 0.945312L177.5 47.1333V139.509L97.5 185.697L17.5 139.509V47.1333L97.5 0.945312Z" fill="#F0F5F6"/>
<path d="M118.607 79.2182V75.4619C118.607 75.0861 118.396 74.7808 117.973 74.546C117.551 74.3111 117.34 74.1937 117.34 74.1937L111.729 71.5164C112.172 71.1675 112.547 70.7481 112.855 70.2583C113.164 69.7684 113.412 69.2585 113.599 68.7284C113.787 68.1983 113.921 67.6783 114.002 67.1683C114.082 66.6583 114.122 66.2088 114.122 65.8196V62.5987C114.122 62.0619 113.951 61.5251 113.609 60.9883C113.268 60.4515 112.825 59.9684 112.282 59.539C111.739 59.1095 111.122 58.7606 110.432 58.4922C109.742 58.2238 109.041 58.0896 108.331 58.0896C107.62 58.0896 106.916 58.2238 106.219 58.4922C105.522 58.7606 104.902 59.1095 104.359 59.539C103.816 59.9684 103.377 60.4515 103.042 60.9883C102.706 61.5251 102.539 62.0619 102.539 62.5987V65.8196C102.539 66.1685 102.579 66.5946 102.659 67.0978C102.74 67.6011 102.877 68.1178 103.072 68.6479C103.266 69.178 103.518 69.698 103.826 70.2079C104.134 70.7179 104.516 71.1541 104.972 71.5164L99.3212 74.1937C99.3212 74.1937 99.1067 74.3178 98.6777 74.5661C98.2487 74.8144 98.0342 75.113 98.0342 75.4619V79.2182" fill="#000033"/>
<path d="M118.607 79.2182V75.4619C118.607 75.0861 118.396 74.7808 117.973 74.546C117.551 74.3111 117.34 74.1937 117.34 74.1937L111.729 71.5164C112.172 71.1675 112.547 70.7481 112.855 70.2583C113.164 69.7684 113.412 69.2585 113.599 68.7284C113.787 68.1983 113.921 67.6783 114.002 67.1683C114.082 66.6583 114.122 66.2088 114.122 65.8196V62.5987C114.122 62.0619 113.951 61.5251 113.609 60.9883C113.268 60.4515 112.825 59.9684 112.282 59.539C111.739 59.1095 111.122 58.7606 110.432 58.4922C109.742 58.2238 109.041 58.0896 108.331 58.0896C107.62 58.0896 106.916 58.2238 106.219 58.4922C105.522 58.7606 104.902 59.1095 104.359 59.539C103.816 59.9684 103.377 60.4515 103.042 60.9883C102.706 61.5251 102.539 62.0619 102.539 62.5987V65.8196C102.539 66.1685 102.579 66.5946 102.659 67.0978C102.74 67.6011 102.877 68.1178 103.072 68.6479C103.266 69.178 103.518 69.698 103.826 70.2079C104.134 70.7179 104.516 71.1541 104.972 71.5164L99.3212 74.1937C99.3212 74.1937 99.1067 74.3178 98.6777 74.5661C98.2487 74.8144 98.0342 75.113 98.0342 75.4619V79.2182" stroke="#000033" stroke-width="1.2566"/>
<path d="M71.1214 93.3918H50.5488V129.533H71.1214V93.3918Z" fill="white"/>
<path d="M94.7523 106.18H74.1797V129.533H94.7523V106.18Z" fill="white"/>
<path d="M118.383 82.2715H97.8105V129.533H118.383V82.2715Z" fill="white"/>
<path d="M71.1214 103.956H50.5488V129.533H71.1214V103.956Z" fill="#00E599"/>
<path d="M94.7523 117.299H74.1797V129.531H94.7523V117.299Z" fill="#00E599"/>
<path d="M118.383 93.9475H97.8105V129.533H118.383V93.9475Z" fill="#00E599"/>
<path d="M71.1214 93.3918H50.5488V129.533H71.1214V93.3918Z" stroke="#000033" stroke-width="1.81261"/>
<path d="M94.7523 106.18H74.1797V129.533H94.7523V106.18Z" stroke="#000033" stroke-width="1.81261"/>
<path d="M118.383 82.2715H97.8105V129.533H118.383V82.2715Z" stroke="#000033" stroke-width="1.81261"/>
<path d="M94.8327 102.8V98.945C94.8327 98.5593 94.6158 98.246 94.1821 98.0049C93.7484 97.7639 93.5315 97.6434 93.5315 97.6434L87.7692 94.8956C88.2236 94.5375 88.6091 94.1071 88.9258 93.6044C89.2425 93.1017 89.4972 92.5783 89.69 92.0342C89.8827 91.4902 90.0204 90.9565 90.103 90.4331C90.1856 89.9097 90.227 89.4483 90.227 89.0489V85.7433C90.227 85.1924 90.0514 84.6414 89.7003 84.0905C89.3492 83.5396 88.8948 83.0437 88.3372 82.603C87.7795 82.1622 87.1461 81.8041 86.437 81.5287C85.7279 81.2532 85.0085 81.1155 84.2787 81.1155C83.549 81.1155 82.8261 81.2532 82.1101 81.5287C81.3941 81.8041 80.7573 82.1622 80.1996 82.603C79.642 83.0437 79.1911 83.5396 78.8468 84.0905C78.5026 84.6414 78.3305 85.1924 78.3305 85.7433V89.0489C78.3305 89.407 78.3718 89.8443 78.4544 90.3608C78.537 90.8773 78.6782 91.4075 78.8778 91.9516C79.0775 92.4956 79.3356 93.0293 79.6523 93.5527C79.969 94.0761 80.3614 94.5237 80.8296 94.8956L75.0259 97.6434C75.0259 97.6434 74.8056 97.7708 74.365 98.0256C73.9244 98.2804 73.7041 98.5869 73.7041 98.945V102.8" fill="white"/>
<path d="M94.8327 102.8V98.945C94.8327 98.5593 94.6158 98.246 94.1821 98.0049C93.7484 97.7639 93.5315 97.6434 93.5315 97.6434L87.7692 94.8956C88.2236 94.5375 88.6091 94.1071 88.9258 93.6044C89.2425 93.1017 89.4972 92.5783 89.69 92.0342C89.8827 91.4902 90.0204 90.9565 90.103 90.4331C90.1856 89.9097 90.227 89.4483 90.227 89.0489V85.7433C90.227 85.1924 90.0514 84.6414 89.7003 84.0905C89.3492 83.5396 88.8948 83.0437 88.3372 82.603C87.7795 82.1622 87.1461 81.8041 86.437 81.5287C85.7279 81.2532 85.0085 81.1155 84.2787 81.1155C83.549 81.1155 82.8261 81.2532 82.1101 81.5287C81.3941 81.8041 80.7573 82.1622 80.1996 82.603C79.642 83.0437 79.1911 83.5396 78.8468 84.0905C78.5026 84.6414 78.3305 85.1924 78.3305 85.7433V89.0489C78.3305 89.407 78.3718 89.8443 78.4544 90.3608C78.537 90.8773 78.6782 91.4075 78.8778 91.9516C79.0775 92.4956 79.3356 93.0293 79.6523 93.5527C79.969 94.0761 80.3614 94.5237 80.8296 94.8956L75.0259 97.6434C75.0259 97.6434 74.8056 97.7708 74.365 98.0256C73.9244 98.2804 73.7041 98.5869 73.7041 98.945V102.8" stroke="#000033" stroke-width="1.2566"/>
<path d="M142.013 93.3916H121.44V129.533H142.013V93.3916Z" fill="white"/>
<path d="M142.013 103.956H121.44V129.533H142.013V103.956Z" fill="#00E599"/>
<path d="M142.013 93.3916H121.44V129.533H142.013V93.3916Z" stroke="#000033" stroke-width="1.81261"/>
<path d="M142.291 90.0547V86.1996C142.291 85.8139 142.074 85.5006 141.64 85.2596C141.206 85.0185 140.99 84.898 140.99 84.898L135.227 82.1503C135.682 81.7922 136.067 81.3617 136.384 80.859C136.7 80.3563 136.955 79.8329 137.148 79.2889C137.341 78.7448 137.478 78.2111 137.561 77.6877C137.644 77.1643 137.685 76.7029 137.685 76.3035V72.9979C137.685 72.447 137.509 71.8961 137.158 71.3451C136.807 70.7942 136.353 70.2984 135.795 69.8576C135.238 69.4169 134.604 69.0588 133.895 68.7833C133.186 68.5078 132.466 68.3701 131.737 68.3701C131.007 68.3701 130.284 68.5078 129.568 68.7833C128.852 69.0588 128.215 69.4169 127.658 69.8576C127.1 70.2984 126.649 70.7942 126.305 71.3451C125.961 71.8961 125.789 72.447 125.789 72.9979V76.3035C125.789 76.6616 125.83 77.0989 125.912 77.6154C125.995 78.1319 126.136 78.6622 126.336 79.2062C126.535 79.7503 126.794 80.284 127.11 80.8074C127.427 81.3308 127.819 81.7784 128.288 82.1503L122.484 84.898C122.484 84.898 122.264 85.0254 121.823 85.2802C121.382 85.535 121.162 85.8415 121.162 86.1996V90.0547" fill="white"/>
<path d="M142.291 90.0547V86.1996C142.291 85.8139 142.074 85.5006 141.64 85.2596C141.206 85.0185 140.99 84.898 140.99 84.898L135.227 82.1503C135.682 81.7922 136.067 81.3617 136.384 80.859C136.7 80.3563 136.955 79.8329 137.148 79.2889C137.341 78.7448 137.478 78.2111 137.561 77.6877C137.644 77.1643 137.685 76.7029 137.685 76.3035V72.9979C137.685 72.447 137.509 71.8961 137.158 71.3451C136.807 70.7942 136.353 70.2984 135.795 69.8576C135.238 69.4169 134.604 69.0588 133.895 68.7833C133.186 68.5078 132.466 68.3701 131.737 68.3701C131.007 68.3701 130.284 68.5078 129.568 68.7833C128.852 69.0588 128.215 69.4169 127.658 69.8576C127.1 70.2984 126.649 70.7942 126.305 71.3451C125.961 71.8961 125.789 72.447 125.789 72.9979V76.3035C125.789 76.6616 125.83 77.0989 125.912 77.6154C125.995 78.1319 126.136 78.6622 126.336 79.2062C126.535 79.7503 126.794 80.284 127.11 80.8074C127.427 81.3308 127.819 81.7784 128.288 82.1503L122.484 84.898C122.484 84.898 122.264 85.0254 121.823 85.2802C121.382 85.535 121.162 85.8415 121.162 86.1996V90.0547" stroke="#000033" stroke-width="1.2566"/>
<path d="M70.9075 90.0993V86.343C70.9075 85.9673 70.6964 85.6619 70.2741 85.4271C69.8518 85.1922 69.6406 85.0748 69.6406 85.0748L64.0299 82.3975C64.4723 82.0486 64.8477 81.6292 65.1561 81.1394C65.4644 80.6495 65.7124 80.1396 65.9001 79.6095C66.0878 79.0794 66.2219 78.5594 66.3023 78.0494C66.3828 77.5394 66.423 77.0899 66.423 76.7007V73.4799C66.423 72.9431 66.2521 72.4062 65.9102 71.8694C65.5683 71.3326 65.1259 70.8495 64.5829 70.4201C64.04 69.9906 63.4233 69.6417 62.7328 69.3733C62.0424 69.1049 61.3419 68.9707 60.6313 68.9707C59.9208 68.9707 59.2169 69.1049 58.5198 69.3733C57.8226 69.6417 57.2025 69.9906 56.6596 70.4201C56.1166 70.8495 55.6775 71.3326 55.3424 71.8694C55.0072 72.4062 54.8396 72.9431 54.8396 73.4799V76.7007C54.8396 77.0496 54.8798 77.4757 54.9603 77.9789C55.0407 78.4822 55.1781 78.9989 55.3725 79.529C55.5669 80.0591 55.8183 80.5791 56.1267 81.089C56.435 81.599 56.8171 82.0352 57.2729 82.3975L51.622 85.0748C51.622 85.0748 51.4075 85.199 50.9785 85.4472C50.5495 85.6955 50.335 85.9941 50.335 86.343V90.0993" fill="#000033"/>
<path d="M70.9075 90.0993V86.343C70.9075 85.9673 70.6964 85.6619 70.2741 85.4271C69.8518 85.1922 69.6406 85.0748 69.6406 85.0748L64.0299 82.3975C64.4723 82.0486 64.8477 81.6292 65.1561 81.1394C65.4644 80.6495 65.7124 80.1396 65.9001 79.6095C66.0878 79.0794 66.2219 78.5594 66.3023 78.0494C66.3828 77.5394 66.423 77.0899 66.423 76.7007V73.4799C66.423 72.9431 66.2521 72.4062 65.9102 71.8694C65.5683 71.3326 65.1259 70.8495 64.5829 70.4201C64.04 69.9906 63.4233 69.6417 62.7328 69.3733C62.0424 69.1049 61.3419 68.9707 60.6313 68.9707C59.9208 68.9707 59.2169 69.1049 58.5198 69.3733C57.8226 69.6417 57.2025 69.9906 56.6596 70.4201C56.1166 70.8495 55.6775 71.3326 55.3424 71.8694C55.0072 72.4062 54.8396 72.9431 54.8396 73.4799V76.7007C54.8396 77.0496 54.8798 77.4757 54.9603 77.9789C55.0407 78.4822 55.1781 78.9989 55.3725 79.529C55.5669 80.0591 55.8183 80.5791 56.1267 81.089C56.435 81.599 56.8171 82.0352 57.2729 82.3975L51.622 85.0748C51.622 85.0748 51.4075 85.199 50.9785 85.4472C50.5495 85.6955 50.335 85.9941 50.335 86.343V90.0993" stroke="#000033" stroke-width="1.2566"/>
<defs>
<filter id="filter0_dd_557_401" x="0.310802" y="0.945312" width="178.622" height="203.374" filterUnits="userSpaceOnUse" color-interpolation-filters="sRGB">
<feFlood flood-opacity="0" result="BackgroundImageFix"/>
<feColorMatrix in="SourceAlpha" type="matrix" values="0 0 0 0 0 0 0 0 0 0 0 0 0 0 0 0 0 0 127 0" result="hardAlpha"/>
<feOffset dx="-8.5946" dy="10.027"/>
<feGaussianBlur stdDeviation="4.2973"/>
<feColorMatrix type="matrix" values="0 0 0 0 0.316369 0 0 0 0 0.366988 0 0 0 0 0.353496 0 0 0 0.25741 0"/>
<feBlend mode="normal" in2="BackgroundImageFix" result="effect1_dropShadow_557_401"/>
<feColorMatrix in="SourceAlpha" type="matrix" values="0 0 0 0 0 0 0 0 0 0 0 0 0 0 0 0 0 0 127 0" result="hardAlpha"/>
<feOffset dx="-2.14865" dy="5.01352"/>
<feGaussianBlur stdDeviation="1.79054"/>
<feColorMatrix type="matrix" values="0 0 0 0 0 0 0 0 0 0 0 0 0 0 0 0 0 0 0.144615 0"/>
<feBlend mode="normal" in2="effect1_dropShadow_557_401" result="effect2_dropShadow_557_401"/>
<feBlend mode="normal" in="SourceGraphic" in2="effect2_dropShadow_557_401" result="shape"/>
</filter>
</defs>
</svg>
